packages/dnb-ui-lib/assets/icons/digipost.svg

<svg width="16" height="16" viewBox="0 0 16 16" fill="none" xmlns="http://www.w3.org/2000/svg">
<path fill-rule="evenodd" clip-rule="evenodd" d="M4.85626 0.899902C3.88976 0.899902 3.10626 1.6834 3.10626 2.6499V2.99988C3.10626 3.41409 3.44205 3.74988 3.85626 3.74988C4.27048 3.74988 4.60626 3.41409 4.60626 2.99988V2.6499C4.60626 2.51183 4.71819 2.3999 4.85626 2.3999H10.0316C10.1052 2.3999 10.175 2.43228 10.2225 2.48842L12.8615 5.6073C12.8997 5.65244 12.9207 5.70966 12.9207 5.76879V13.3509C12.9207 13.489 12.8088 13.6009 12.6707 13.6009H4.85626C4.71819 13.6009 4.60626 13.489 4.60626 13.3509V12.9999C4.60626 12.5857 4.27048 12.2499 3.85626 12.2499C3.44205 12.2499 3.10626 12.5857 3.10626 12.9999V13.3509C3.10626 14.3174 3.88977 15.1009 4.85626 15.1009H12.6707C13.6372 15.1009 14.4207 14.3174 14.4207 13.3509V5.76879C14.4207 5.35488 14.274 4.95436 14.0066 4.63839L11.3676 1.5195C11.0351 1.12654 10.5464 0.899902 10.0316 0.899902H4.85626ZM5.2291 6.74385V4.34985H6.6161V10.9999H5.3811V10.3064C5.0296 10.8289 4.4881 11.0949 3.8326 11.0949C2.5786 11.0949 1.6001 10.0119 1.6001 8.62485C1.6001 7.23785 2.5786 6.15485 3.8326 6.15485C4.4026 6.15485 4.8871 6.35435 5.2291 6.74385ZM2.9871 8.62485C2.9871 9.44185 3.4146 9.99285 4.0606 9.99285C4.7636 9.99285 5.2291 9.44185 5.2291 8.62485C5.2291 7.80785 4.7636 7.25685 4.0606 7.25685C3.4146 7.25685 2.9871 7.80785 2.9871 8.62485Z" fill="black"/>
</svg>

<svg width="16" height="16" viewBox="0 0 16 16" fill="none" xmlns="http://www.w3.org/2000/svg"><path fill-rule="evenodd" clip-rule="evenodd" d="M4.856.9a1.75 1.75 0 00-1.75 1.75V3a.75.75 0 001.5 0v-.35a.25.25 0 01.25-.25h5.176a.25.25 0 01.19.088l2.64 3.12a.25.25 0 01.059.16v7.583a.25.25 0 01-.25.25H4.856a.25.25 0 01-.25-.25V13a.75.75 0 00-1.5 0v.35c0 .967.784 1.75 1.75 1.75h7.815a1.75 1.75 0 001.75-1.75V5.77a1.75 1.75 0 00-.414-1.13l-2.64-3.12A1.75 1.75 0 0010.033.9H4.856zm.373 5.844V4.35h1.387V11H5.381v-.694c-.351.523-.893.789-1.548.789-1.254 0-2.233-1.083-2.233-2.47 0-1.387.979-2.47 2.233-2.47.57 0 1.054.2 1.396.589zm-2.242 1.88c0 .818.428 1.369 1.074 1.369.703 0 1.168-.551 1.168-1.368 0-.817-.465-1.368-1.168-1.368-.646 0-1.074.55-1.074 1.368z" fill="#000"/></svg>
